X: 12
T: Farewell To Whisky
R: polka
M: 2/4
L: 1/8
K: Gmaj
G/E/|:"G"DG B/A/G/A/|"Em"BE EG/E/|"G"DG/A/ "Em"B/A/G/A/|"G"dB Bd|!
"C"e/f/g/e/ "G"dB|"Am"c/B/A/G/ AB|"G"D>G "D"B/A/G/A/|"G"BG G:|!
|:B/c/|"G"dg gf/g/|"C"e/f/g/e/ "G"d>B|"Bm"dg "G"gf/g/|"C"e"D"f "Em"g2|!
"C"e/f/g/e/ "G"dB|"Am"c/B/A/G/ AB|"G"D>G "D"B/A/G/A/|BG G:|
